icons/svg/seamark_int1_shields/seamark_j21_rocky_shield_night.svg

<?xml version="1.0" encoding="UTF-8"?>
<svg width="580" height="580" fill="none" version="1.1" viewBox="0 0 580 580" xmlns="http://www.w3.org/2000/svg" xmlns:cc="http://creativecommons.org/ns#" xmlns:dc="http://purl.org/dc/elements/1.1/" xmlns:rdf="http://www.w3.org/1999/02/22-rdf-syntax-ns#">
 <title>RCKLDG06L</title>
 <desc>rockledge</desc>
 <metadata>
  <!-- Created as line-style for Openseamap, CC BY-SA 2.0, 2021-10-27, josail, rockledge simplified SVG based on INT-1 J21 -->
  <rdf:RDF>
   <cc:Work rdf:about="">
    <dc:title>RCKLDG06L</dc:title>
    <dc:format>image/svg+xml</dc:format>
    <dc:type rdf:resource="http://purl.org/dc/dcmitype/StillImage"/>
   </cc:Work>
  </rdf:RDF>
 </metadata>
 <g transform="matrix(21.6 0 0 20.4 -8.81 131)" fill="none" stroke="#d6d6d6" stroke-linecap="round" stroke-linejoin="round" stroke-opacity=".839" stroke-width="1.43">
  <path d="m0.9 7.77c0.13 0.91 0.26 1.81 0.6 2.56s0.88 1.52 1.44 1.94c0.55 0.43 1.4 0.7 1.87 0.63s0.94-1.03 0.94-1.03"/>
  <path d="m3.42 3.9c-0.08 1.08-0.16 2.16 0 3.28 0.17 1.11 0.48 2.56 1 3.4 0.53 0.85 1.51 1.43 2.17 1.66 0.67 0.24 1.4-0.1 1.81-0.25 0.4-0.15 0.52-0.4 0.63-0.66"/>
  <path d="m13.9 10.6c-0.07 0.58-0.14 1.16-0.5 1.57-0.35 0.4-1.04 0.74-1.65 0.84-0.62 0.1-1.57 0.08-2.03-0.22s-0.55-0.94-0.72-1.56-0.3-1.29-0.28-2.16c0.01-0.87 0.19-1.96 0.37-3.06"/>
  <path d="m17.5 10.8c-0.18 0.29-0.37 0.58-0.72 0.72s-0.9 0.29-1.37 0.13-1.04-0.47-1.46-1.1c-0.42-0.62-0.81-1.87-1.08-2.65-0.26-0.78-0.36-1.25-0.53-2.03-0.18-0.79-0.34-1.74-0.51-2.69"/>
  <path d="m20.9 9.96c-0.18 0.4-0.35 0.79-0.7 1.03-0.34 0.24-0.89 0.42-1.36 0.41-0.46-0.02-1.06-0.11-1.42-0.5s-0.62-1.17-0.72-1.85c-0.11-0.67-0.01-1.4 0.09-2.22 0.09-0.81 0.29-1.75 0.48-2.68"/>
  <path d="m26.4 5.65c0.17 0.7 0.34 1.4 0.38 2.18 0.04 0.79 0.02 1.85-0.13 2.54-0.15 0.68-0.36 1.24-0.76 1.56-0.41 0.32-1.06 0.37-1.67 0.34-0.61-0.02-1.43-0.12-1.98-0.5-0.55-0.37-1.03-1.03-1.31-1.75-0.29-0.72-0.41-1.24-0.42-2.56s0.17-3.35 0.35-5.38"/>
 </g>
</svg>

<?xml version="1.0" encoding="UTF-8" standalone="no"?>
<svg
   width="580"
   height="580"
   fill="none"
   version="1.1"
   viewBox="0 0 580 580"
   id="svg22"
   sodipodi:docname="seamark_j21_rocky_shield_night.svg"
   inkscape:version="1.1.1 (3bf5ae0d25, 2021-09-20)"
   xmlns:inkscape="http://www.inkscape.org/namespaces/inkscape"
   xmlns:sodipodi="http://sodipodi.sourceforge.net/DTD/sodipodi-0.dtd"
   xmlns="http://www.w3.org/2000/svg"
   xmlns:svg="http://www.w3.org/2000/svg"
   xmlns:rdf="http://www.w3.org/1999/02/22-rdf-syntax-ns#"
   xmlns:cc="http://creativecommons.org/ns#"
   xmlns:dc="http://purl.org/dc/elements/1.1/">
  <defs
     id="defs26" />
  <sodipodi:namedview
     id="namedview24"
     pagecolor="#ffffff"
     bordercolor="#666666"
     borderopacity="1.0"
     inkscape:pageshadow="2"
     inkscape:pageopacity="0.0"
     inkscape:pagecheckerboard="0"
     showgrid="false"
     inkscape:zoom="1.5051724"
     inkscape:cx="290"
     inkscape:cy="290"
     inkscape:window-width="2560"
     inkscape:window-height="1377"
     inkscape:window-x="-8"
     inkscape:window-y="-8"
     inkscape:window-maximized="1"
     inkscape:current-layer="svg22" />
  <title
     id="title2">RCKLDG06L</title>
  <desc
     id="desc4">rockledge</desc>
  <metadata
     id="metadata6">
    <!-- Created as line-style for Openseamap, CC BY-SA 2.0, 2021-10-27, josail, rockledge simplified SVG based on INT-1 J21 -->
    <rdf:RDF>
      <cc:Work
         rdf:about="">
        <dc:title>RCKLDG06L</dc:title>
        <dc:format>image/svg+xml</dc:format>
        <dc:type
           rdf:resource="http://purl.org/dc/dcmitype/StillImage" />
      </cc:Work>
    </rdf:RDF>
  </metadata>
  <g
     transform="matrix(0,21.6,-20.4,0,444.79773,-9.668186)"
     fill="none"
     stroke="#d6d6d6"
     stroke-linecap="round"
     stroke-linejoin="round"
     stroke-opacity="0.839"
     stroke-width="1.43"
     id="g20">
    <path
       d="m 0.9,7.77 c 0.13,0.91 0.26,1.81 0.6,2.56 0.34,0.75 0.88,1.52 1.44,1.94 0.55,0.43 1.4,0.7 1.87,0.63 0.47,-0.07 0.94,-1.03 0.94,-1.03"
       id="path8" />
    <path
       d="m 3.42,3.9 c -0.08,1.08 -0.16,2.16 0,3.28 0.17,1.11 0.48,2.56 1,3.4 0.53,0.85 1.51,1.43 2.17,1.66 0.67,0.24 1.4,-0.1 1.81,-0.25 0.4,-0.15 0.52,-0.4 0.63,-0.66"
       id="path10" />
    <path
       d="m 13.9,10.6 c -0.07,0.58 -0.14,1.16 -0.5,1.57 -0.35,0.4 -1.04,0.74 -1.65,0.84 -0.62,0.1 -1.57,0.08 -2.03,-0.22 C 9.26,12.49 9.17,11.85 9,11.23 8.83,10.61 8.7,9.94 8.72,9.07 8.73,8.2 8.91,7.11 9.09,6.01"
       id="path12" />
    <path
       d="m 17.5,10.8 c -0.18,0.29 -0.37,0.58 -0.72,0.72 -0.35,0.14 -0.9,0.29 -1.37,0.13 -0.47,-0.16 -1.04,-0.47 -1.46,-1.1 C 13.53,9.93 13.14,8.68 12.87,7.9 12.61,7.12 12.51,6.65 12.34,5.87 12.16,5.08 12,4.13 11.83,3.18"
       id="path14" />
    <path
       d="m 20.9,9.96 c -0.18,0.4 -0.35,0.79 -0.7,1.03 -0.34,0.24 -0.89,0.42 -1.36,0.41 C 18.38,11.38 17.78,11.29 17.42,10.9 17.06,10.51 16.8,9.73 16.7,9.05 16.59,8.38 16.69,7.65 16.79,6.83 16.88,6.02 17.08,5.08 17.27,4.15"
       id="path16" />
    <path
       d="m 26.4,5.65 c 0.17,0.7 0.34,1.4 0.38,2.18 0.04,0.79 0.02,1.85 -0.13,2.54 -0.15,0.68 -0.36,1.24 -0.76,1.56 -0.41,0.32 -1.06,0.37 -1.67,0.34 -0.61,-0.02 -1.43,-0.12 -1.98,-0.5 C 21.69,11.4 21.21,10.74 20.93,10.02 20.64,9.3 20.52,8.78 20.51,7.46 20.5,6.14 20.68,4.11 20.86,2.08"
       id="path18" />
  </g>
</svg>
